actions/32/view-group.svg

<svg xmlns="http://www.w3.org/2000/svg" viewBox="0 0 32 32">
  <defs
     id="defs3051">
<style type="text/css" id="current-color-scheme">.ColorScheme-Text {color:#fcfcfc;}</style>
  </defs>
  <path
     style="fill:currentColor;fill-opacity:1;stroke:none" 
     d="m 4,8 c 0,4 0,12 0,16 0,4 4,4 4,4 h 16 c 0,0 4,0 4,-4 C 28,20 28,12 28,8 28,4 24,4 24,4 H 8 C 8,4 4,4 4,8 Z m 1,4 C 5,9 8,9 8,9 h 16 c 0,0 3,0 3,3 0,3 0,9 0,12 0,3 -3,3 -3,3 H 8 C 8,27 5,27 5,24 5,21 5,15 5,12 Z m 3,-1 v 6 h 7 v -6 z m 9,0 v 6 h 7 v -6 z m -8,1 h 5 v 4 H 9 Z m 9,0 h 5 v 4 H 18 Z M 8,19 v 6 h 7 v -6 z m 9,0 v 6 h 7 v -6 z m -8,1 h 5 v 4 H 9 Z m 9,0 h 5 v 4 h -5 z"
     id="path45" 
     class="ColorScheme-Text"
     />
</svg>

<svg xmlns="http://www.w3.org/2000/svg" viewBox="0 0 32 32">
  <defs
     id="defs3051">
    <style
       type="text/css"
       id="current-color-scheme">
      .ColorScheme-Text {
        color:#eff0f1;
      }
      </style>
  </defs>
  <path
     style="fill:currentColor;fill-opacity:1;stroke:none" 
     d="M 4 4 L 4 28 L 28 28 L 28 4 L 4 4 z M 5 9 L 27 9 L 27 27 L 5 27 L 5 9 z M 8 11 L 8 17 L 15 17 L 15 11 L 8 11 z M 17 11 L 17 17 L 24 17 L 24 11 L 17 11 z M 9 12 L 14 12 L 14 16 L 9 16 L 9 12 z M 18 12 L 23 12 L 23 16 L 18 16 L 18 12 z M 8 19 L 8 25 L 15 25 L 15 19 L 8 19 z M 17 19 L 17 25 L 24 25 L 24 19 L 17 19 z M 9 20 L 14 20 L 14 24 L 9 24 L 9 20 z M 18 20 L 23 20 L 23 24 L 18 24 L 18 20 z "
     id="path45" 
     class="ColorScheme-Text"
     />
</svg>
